X: 26
T: Shenmoren liuxia lan changgong
L: 1/8
M: 2/4
K: Bb
f> f g c'/ c'/ [I:setbarnb 1]| 
g f d c | 
f2g b | 
c4 | 
f> f g c' | 
g f d c | 
B> d c G | 
F4 |]

@@@ Tune index: 8900
